dist/assets/images/weather/weather_32.svg

<svg width="86" height="86" viewBox="0 0 86 86" fill="none" xmlns="http://www.w3.org/2000/svg">
<path d="M53.4813 46.4803C62.8247 46.4803 70.3991 38.9059 70.3991 29.5625C70.3991 20.219 62.8247 12.6447 53.4813 12.6447C44.1378 12.6447 36.5635 20.219 36.5635 29.5625C36.5635 38.9059 44.1378 46.4803 53.4813 46.4803Z" fill="#EFCC00"/>
<path d="M53.4812 2.6875V8.65375" stroke="#EFCC00" stroke-width="3" stroke-miterlimit="10" stroke-linecap="round"/>
<path d="M53.4812 50.4713V56.4375" stroke="#EFCC00" stroke-width="3" stroke-miterlimit="10" stroke-linecap="round"/>
<path d="M26.6062 29.5625H32.5859" stroke="#EFCC00" stroke-width="3" stroke-miterlimit="10" stroke-linecap="round"/>
<path d="M74.3901 29.5625H80.3564" stroke="#EFCC00" stroke-width="3" stroke-miterlimit="10" stroke-linecap="round"/>
<path d="M34.4807 10.5619L38.7001 14.7813" stroke="#EFCC00" stroke-width="3" stroke-miterlimit="10" stroke-linecap="round"/>
<path d="M68.2625 44.3438L72.4818 48.5631" stroke="#EFCC00" stroke-width="3" stroke-miterlimit="10" stroke-linecap="round"/>
<path d="M34.4807 48.5631L38.7001 44.3438" stroke="#EFCC00" stroke-width="3" stroke-miterlimit="10" stroke-linecap="round"/>
<path d="M68.2625 14.7813L72.4818 10.5619" stroke="#EFCC00" stroke-width="3" stroke-miterlimit="10" stroke-linecap="round"/>
<path d="M31.5781 21.3656C35.8615 21.357 40.0658 22.519 43.7367 24.7263C47.4075 26.9336 50.4054 30.1021 52.4062 33.8894C54.8575 32.4562 57.6061 31.6073 60.4386 31.4085C63.2712 31.2097 66.1114 31.6665 68.7388 32.7433C71.3662 33.8201 73.71 35.488 75.5884 37.6174C77.4667 39.7469 78.829 42.2806 79.5694 45.0218C80.3098 47.7631 80.4085 50.6381 79.8577 53.4237C79.3069 56.2092 78.1215 58.8304 76.3935 61.0836C74.6656 63.3368 72.4415 65.1614 69.8941 66.4157C67.3467 67.6701 64.5445 68.3204 61.705 68.3163L31.5781 68.3969C25.3414 68.3969 19.3601 65.9194 14.9501 61.5093C10.54 57.0993 8.0625 51.118 8.0625 44.8813C8.0625 38.6445 10.54 32.6633 14.9501 28.2532C19.3601 23.8432 25.3414 21.3656 31.5781 21.3656Z" fill="url(#paint0_linear)"/>
<path d="M79.4604 54.8023C82.2063 44.9743 76.4651 34.7812 66.6371 32.0354C56.8092 29.2895 46.6161 35.0307 43.8703 44.8586C41.1244 54.6866 46.8656 64.8796 56.6935 67.6255C66.5215 70.3714 76.7145 64.6302 79.4604 54.8023Z" fill="url(#paint1_linear)"/>
<path d="M58.4934 62.4844C59.3774 62.495 60.2215 62.8536 60.8429 63.4825C61.4642 64.1113 61.8126 64.9597 61.8125 65.8438C61.8125 66.7347 61.4586 67.5892 60.8286 68.2192C60.1986 68.8492 59.3441 69.2031 58.4531 69.2031H30.2344C29.1652 69.2031 28.1399 69.6278 27.3839 70.3839C26.6278 71.1399 26.2031 72.1652 26.2031 73.2344V73.2344C26.2031 74.3035 26.6278 75.3289 27.3839 76.0849C28.1399 76.8409 29.1652 77.2656 30.2344 77.2656H56.7734C57.4862 77.2656 58.1698 77.5488 58.6738 78.0528C59.1778 78.5568 59.4609 79.2404 59.4609 79.9531V80.0606C59.4609 80.7734 59.1778 81.457 58.6738 81.961C58.1698 82.465 57.4862 82.7481 56.7734 82.7481H54.4219" stroke="#A5A9AA" stroke-width="3" stroke-miterlimit="10" stroke-linecap="round"/>
<path d="M69.2031 79.9531C69.9159 79.9531 70.5995 79.67 71.1035 79.166C71.6075 78.662 71.8906 77.9784 71.8906 77.2656C71.8906 76.5529 71.6075 75.8693 71.1035 75.3653C70.5995 74.8613 69.9159 74.5781 69.2031 74.5781H63.8281" stroke="#B9C1C6" stroke-width="3" stroke-miterlimit="10" stroke-linecap="round"/>
<defs>
<linearGradient id="paint0_linear" x1="25.6387" y1="70.3991" x2="53.9784" y2="33.7013" gradientUnits="userSpaceOnUse">
<stop stop-color="#F2F2F2"/>
<stop offset="1" stop-color="#CFCFCF"/>
</linearGradient>
<linearGradient id="paint1_linear" x1="69.2206" y1="43.2631" x2="47.8001" y2="61.9039" gradientUnits="userSpaceOnUse">
<stop offset="0.02" stop-color="white"/>
<stop offset="1" stop-color="white" stop-opacity="0"/>
</linearGradient>
</defs>
</svg>

<svg width="86" height="86" fill="none" xmlns="http://www.w3.org/2000/svg"><path d="M53.481 46.48c9.344 0 16.918-7.574 16.918-16.917 0-9.344-7.574-16.918-16.918-16.918-9.343 0-16.918 7.574-16.918 16.918 0 9.343 7.575 16.917 16.918 16.917z" fill="#EFCC00"/><path d="M53.481 2.688v5.966m0 41.817v5.967M26.606 29.563h5.98m41.804 0h5.966M34.48 10.562l4.22 4.22m29.563 29.562l4.219 4.22m-38.002-.001l4.22-4.22m29.563-29.562l4.219-4.22" stroke="#EFCC00" stroke-width="3" stroke-miterlimit="10" stroke-linecap="round"/><path d="M31.578 21.366a23.503 23.503 0 0120.828 12.523 18.477 18.477 0 119.299 34.427l-30.127.08a23.515 23.515 0 110-47.03z" fill="url(#paint0_linear)"/><path d="M79.46 54.802c2.746-9.828-2.995-20.02-12.823-22.767-9.828-2.745-20.02 2.996-22.767 12.824-2.746 9.828 2.996 20.02 12.824 22.767 9.828 2.745 20.02-2.996 22.766-12.824z" fill="url(#paint1_linear)"/><path d="M58.493 62.484a3.36 3.36 0 01-.04 6.72H30.234a4.03 4.03 0 00-4.03 4.03v0a4.031 4.031 0 004.03 4.032h26.54a2.688 2.688 0 012.687 2.687v.108a2.688 2.688 0 01-2.688 2.687h-2.351" stroke="#A5A9AA" stroke-width="3" stroke-miterlimit="10" stroke-linecap="round"/><path d="M69.203 79.953a2.688 2.688 0 100-5.375h-5.375" stroke="#B9C1C6" stroke-width="3" stroke-miterlimit="10" stroke-linecap="round"/><defs><linearGradient id="paint0_linear" x1="25.639" y1="70.399" x2="53.978" y2="33.701" gradientUnits="userSpaceOnUse"><stop stop-color="#F2F2F2"/><stop offset="1" stop-color="#CFCFCF"/></linearGradient><linearGradient id="paint1_linear" x1="69.221" y1="43.263" x2="47.8" y2="61.904" gradientUnits="userSpaceOnUse"><stop offset=".02" stop-color="#fff"/><stop offset="1" stop-color="#fff" stop-opacity="0"/></linearGradient></defs></svg>
